X: 42055
T: Waltz Harry Lane
R: waltz
M: 3/4
K: Aminor
ec AE Bc|d2 de ed|c2 Bc AB|(3E^GA BE- E^d|
ec AE Bc|d2 de ed|cB Ac (3BA^G|A2A2^d2|
ec AE Bc|d2 de ed|c2 Bc AB|(3E^GA Bc d^d|
ec AE Bc|d2 de ed|cB Ac (3BA^G|A2A2cB|
A2(3ABc dg|a2a2a2|g2ga gf|e2eb (3agf|
eg ^fg ec|B4z2|Bc AB cd|Bdc2cB|
A2(3ABc dg|a2a2a2|g2ga gf|e2eb (3agf|
eg ^fg ec|B4(3Bcd|ed cB cB|A6|

